X: 1
T: The Noisy Curlew
R: reel
M: 4/4
L: 1/8
K: Dmaj
|:DFAF DGBG | DFAF EDCE | DF~F2 ABde| fdAG FGEF |
DFAF DGBG | DFAF EDCE | DF~F2 ABde| fdAG FDD2:|
|:fgaf g2ag| fgaf gfeg | fgaf geag| fdAG FDDg |
fgaf g2ag| fgaf gfeg | fdAF Gzag|1 (3faf ea fddg :| 2 (3faf ea fdAF ||


Tune 1432	Setting 14809

